!!!!SEGMENT: pl-wnifc--6730-n--028_sowinski-wojciech--chants-religieux-de-la-pologne-op-93-saint-jean-de-dukla-saint-jean-de-dukla-ranime-mon-coeur.krn
!!!cenid: 18xx:4042
!!!COM: Sowiński, Wojciech
!!!COM-rismID: pe30008543
!!!CDT: ~1803-1880/03/05
!!!CNT:
!!!OTL: Chants religieux de la Pologne op. 93
!!!PDT: 1830
!!!AGN:
!!!SMS-siglum: PL-Wnifc
!!!SMS-shelfmark: 6730/n
!!!SMS-shelfwork: 028 W
!!!SMS-variant:
!!!SMS-altvar:
!!!NIFC-rismSourceID: 1001138221
!!!NIFC-rismChildID: 1001138254
!!!NIFC-islandoraID: nifc:213350
!!!URL-pdf-islandora: https://repozytorium.nifc.pl/islandora/object/nifc%3A213350/datastream/PDF/view
!!!URL-scan: https://polish.musicsources.pl/pl/lokalizacje/galeria/druki-muzyczne/16913 @EN{Scan on Polish Music Sources Website} @PL{Skany w portalu Dziedzictwo Muzyki Polskiej w otwartym dostępie}
!!!ONB-nifc: UWAGA: str. 110-113
!!!AIN: 1 calto 2 organ 2 soprn
!!!key: F
**kern	**kern	**dynam	**kern	**text	**dynam	**kern	**text	**dynam	**kern	**text	**dynam
*part5	*part4	*part4	*part3	*part3	*part3	*part2	*part2	*part2	*part1	*part1	*part1
*staff5	*staff4	*	*staff3	*staff3	*	*staff2	*staff2	*	*staff1	*staff1	*
*I"Organo	*I"ORGUE.	*	*I"CONTRALTO.	*	*	*I"2.e DESSUS.	*	*	*I"1.er DESSUS.	*	*
*	*I'org	*	*I'Contra-A	*	*	*I'S 2	*	*	*I'S 1	*	*
*Iorgan	*Iorgan	*	*Icalto	*	*	*Isoprn	*	*	*Isoprn	*	*
*ICklav	*ICklav	*	*ICvox	*	*	*ICvox	*	*	*ICvox	*	*
*clefF4	*clefG2	*	*clefG2	*	*	*clefG2	*	*	*clefG2	*	*
*k[b-]	*k[b-]	*	*k[b-]	*	*	*k[b-]	*	*	*k[b-]	*	*
*F:	*F:	*	*F:	*	*	*F:	*	*	*F:	*	*
*M4/4	*M4/4	*	*M4/4	*	*	*M4/4	*	*	*M4/4	*	*
*met(c)	*met(c)	*	*met(c)	*	*	*met(c)	*	*	*met(c)	*	*
=1	=1	=1	=1	=1	=1	=1	=1	=1	=1	=1	=1
*^	*^	*	*	*	*	*	*	*	*	*	*
!	!	!LO:TX:a:B:t=Allo. con moto	!	!	!	!	!	!	!	!	!LO:TX:a:B:t=Allo. con moto	!	!
4F/	2.F\	4a/	2f\	f	1r	.	.	1r	.	.	1r	.	.
4G/	.	4b-/	.	.	.	.	.	.	.	.	.	.	.
4A/	.	4cc/	4f\	.	.	.	.	.	.	.	.	.	.
4B-/	[4F\	4dd/	4f\	.	.	.	.	.	.	.	.	.	.
=2	=2	=2	=2	=2	=2	=2	=2	=2	=2	=2	=2	=2	=2
8G/L	2F\]	8b-/L	2f\	.	1r	.	.	1r	.	.	1r	.	.
8F/	.	8a/	.	.	.	.	.	.	.	.	.	.	.
8G/	.	8b-/	.	.	.	.	.	.	.	.	.	.	.
8A/J	.	8cc/J	.	.	.	.	.	.	.	.	.	.	.
4B-/	4F\	4dd/	4f\	.	.	.	.	.	.	.	.	.	.
4A/	4F\	4cc/	4f\	.	.	.	.	.	.	.	.	.	.
*v	*v	*	*	*	*	*	*	*	*	*	*	*	*
*	*v	*v	*	*	*	*	*	*	*	*	*	*
=3	=3	=3	=3	=3	=3	=3	=3	=3	=3	=3	=3
4D\ 4d	4f\ 4ff	.	1r	.	.	1r	.	.	1r	.	.
4A\	4f\ 4cc	.	.	.	.	.	.	.	.	.	.
4B-\	4f\ 4dd	.	.	.	.	.	.	.	.	.	.
4A\	4f\ 4cc	.	.	.	.	.	.	.	.	.	.
=4	=4	=4	=4	=4	=4	=4	=4	=4	=4	=4	=4
*^	*^	*	*	*	*	*	*	*	*	*	*
4.G/	2C\	(8cc/L	2e\	.	1r	.	.	1r	.	.	1r	.	.
.	.	8b-/	.	.	.	.	.	.	.	.	.	.	.
.	.	8a/	.	.	.	.	.	.	.	.	.	.	.
8B-/	.	8g/J)	.	.	.	.	.	.	.	.	.	.	.
2B-;</	2C\	2g;/	2e\	.	.	.	.	.	.	.	.	.	.
*v	*v	*	*	*	*	*	*	*	*	*	*	*	*
*	*v	*v	*	*	*	*	*	*	*	*	*	*
=5	=5	=5	=5	=5	=5	=5	=5	=5	=5	=5	=5
!	!LO:TX:b:i:t=con anima.	!	!	!	!LO:DY:a	!	!	!LO:DY:a	!	!	!LO:DY:a
4r	4f/ 4a	f	4f/	Saint	f	4f/	Saint	f	4a/	Saint	f
4F\	4g/ 4b-	.	4f/	Jean-	.	4g/	Jean-	.	4b-/	Jean-	.
4FF/	4a/ 4cc	.	4f/	-de	.	4a/	-de	.	4cc\	-de	.
4r	4a/ 4cc	.	4f/	Du	.	4a/	Du-	.	4cc\	Du-	.
!LO:LB:g=original	!LO:LB:g=original	!	!LO:LB:g=original	!	!	!LO:LB:g=original	!	!	!LO:LB:g=original	!	!
=6	=6	=6	=6	=6	=6	=6	=6	=6	=6	=6	=6
4r	(8g/L 8b-	<	4f/	-kla	.	(8g/L	-kla	.	(8b-/L	-kla	.
.	8f/J 8a	.	.	.	.	8f/J)	.	.	8a/J)	.	.
(4F\	8g/L 8b-	.	4f/	ra-	.	(8g/L	ra-	.	(8b-\L	ra-	.
.	8a/J) 8cc	.	.	.	.	8a/J)	.	.	8cc\J)	.	.
4FF/)	4b-\ 4dd	[	4f/	-ni-	.	4b-/	-ni-	.	4dd\	-ni-	.
4r	4a\ 4cc	.	4f/	-me	.	4a/	-me	.	4cc\	-me	.
=7	=7	=7	=7	=7	=7	=7	=7	=7	=7	=7	=7
4r	4a\ 4ff	f	4f/	mon	.	4a^>/	mon	.	4ff^\	mon	.
(4F\	4a\ 4cc	.	4f/	coeur	.	4a/	coeur	.	4cc\	coeur	.
4FF/)	4b-\ 4dd	.	4B-/	qui	.	4b-/	qui	.	4dd\	qui	.
4r	4b-\ 4dd	.	4B-/	vient	.	4b-/	vient	.	4dd\	vient	.
=8	=8	=8	=8	=8	=8	=8	=8	=8	=8	=8	=8
4CC'/	(8a/L 8cc	.	4c/	t`im-	.	(8a/L	t`im-	.	(8cc\L	t`im-	.
.	8g/ 8b-	.	.	.	.	8g/J)	.	.	8b-\J)	.	.
4C'/	8f/ 8a	.	4c/	-plo-	.	(8f/L	-plo-	.	(8a/L	-plo-	.
.	8e/J) 8g	.	.	.	.	8e/J)	.	.	8g/J)	.	.
!	!	!	!	!	!LO:DY:a	!	!	!LO:DY:a	!	!	!LO:DY:a
(4C\ 4B-	4c^>/ 4e 4g	.	(4c/	-rer	>	(4e/	-rer	>	(4g/	-rer	>
4F\) 4A	4f/	.	4f/)	.	]]	4f/)	.	]]	4f/)	.	]]
=9||	=9||	=9||	=9||	=9||	=9||	=9||	=9||	=9||	=9||	=9||	=9||
!	!	!	!	!	!LO:DY:a	!	!	!LO:DY:a	!	!	!LO:DY:a
4r	(4e/ 4g	p	4c/	Pré-	p	4e/	Pré-	p	4g/	Pré-	p
(4c\	4f/ 4a	.	4c/	-ser-	.	4f/	-ser-	.	4a/	-ser-	.
4C\)	4g/ 4b-	.	4c/	-ve	.	4g/	-ve	.	4b-/	-ve	.
4r	4f/) 4a	.	4c/	moi	.	4f/	moi	.	4a/	moi	.
!LO:LB:g=original	!LO:LB:g=original	!	!LO:LB:g=original	!	!	!LO:LB:g=original	!	!	!LO:LB:g=original	!	!
=10	=10	=10	=10	=10	=10	=10	=10	=10	=10	=10	=10
4r	(8g/L 8b-	.	4f/	de	.	(8g/L	de	.	(8b-/L	de	.
.	8f/ 8a	.	.	.	.	8f/J)	.	.	8a/J)	.	.
!	!	!	!	!	!LO:DY:a	!	!	!	!	!	!
(<4F\	8g/ 8b-	.	4f/	l`a-	<	(8g/L	l`a-	.	(8b-\L	l`a-	.
!	!	!	!	!	!	!	!	!LO:DY:a	!	!	!LO:DY:a
.	8a/J) 8cc	.	.	.	.	8a/J)	.	<	8cc\J)	.	<
4FF/)	4b-\ 4dd	.	4f/	-bi-	.	4b-/	-bi-	.	4dd\	-bi-	.
4r	4a\ 4cc	.	4f/	-me	[[	4a/	-me	[[	4cc\	-me	[[
=11	=11	=11	=11	=11	=11	=11	=11	=11	=11	=11	=11
!	!	!	!	!	!LO:DY:a	!	!	!LO:DY:a	!	!	!LO:DY:a
4r	(4a\ 4ff	f	4f/	ou	[ f	4a/	ou	f	4ff\	ou	f
(4F\	4a\ 4cc	.	4f/	l`en-	.	4a/	l`en-	.	4cc\	l`en-	.
4BB-/)	4b-\) 4dd	.	4B-/	-fer	.	4b-/	-fer	.	4dd\	-fer	.
4r	4b-\ 4dd	.	4B-/	vent	.	4b-/	vent	.	4dd\	vent	.
=12	=12	=12	=12	=12	=12	=12	=12	=12	=12	=12	=12
4C/	(8a/L 8cc	.	4c/	m`at-	.	(8a/L	m`at-	.	(8cc\L	m`at-	.
.	8g/ 8b-	.	.	.	.	8g/J)	.	.	8b-\J)	.	.
4c\	8f/ 8a	.	4c/	-ti-	.	(8f/L	-ti-	.	(8a/L	-ti-	.
.	8e/J) 8g	.	.	.	.	8e/J)	.	.	8g/J)	.	.
!	!	!	!	!	!	!	!	!	!	!	!LO:DY:a
((4C#X\ 4c#X	(4e/ 4g	.	(4c#X/	-rer	.	(4e/	-rer	.	(4g/	-rer	>
4D\)) 4d	4f/)	.	4d/)	.	.	4f/)	.	.	4f/)	.	]]
=13	=13	=13	=13	=13	=13	=13	=13	=13	=13	=13	=13
!	!	!	!	!	!LO:DY:a	!	!	!LO:DY:a	!	!	!LO:DY:a
4r	(4e/ 4g	p	4cn/	Pré-	p	4e/	Pré-	p	4g/	Pré-	p
(4cn\	4f/ 4a	.	4c/	-ser-	.	4f/	-ser-	.	4a/	-ser-	.
4C/)	4g/ 4b-	.	4e/	-ve	.	4g/	-ve	.	4b-/	-ve	.
4r	4f/) 4a	.	4f/	moi	.	4f/	moi	.	4a/	moi	.
!LO:LB:g=original	!LO:LB:g=original	!	!LO:LB:g=original	!	!	!LO:LB:g=original	!	!	!LO:LB:g=original	!	!
=14	=14	=14	=14	=14	=14	=14	=14	=14	=14	=14	=14
4r	(8f/L 8b-	.	4d/	de	.	4f/	de	.	8b-/L	de	.
.	8a/	.	.	.	.	.	.	.	8a/J	.	.
!	!	!	!	!	!	!	!	!LO:DY:a	!	!	!
(4F\	8f/ 8b-	<	(8d/L	la-	.	(8f/L	la-	<	(8b-\L	la-	.
!	!	!	!	!	!	!	!	!	!	!	!LO:DY:a
.	8a/J) 8cc	.	8f/J)	.	.	8a/J)	.	.	8cc\J)	.	<
4FF/)	4b-\ 4dd	.	4f/	-bi-	.	4b-/	-bi-	.	4dd\	-bi-	.
4r	4a\ 4cc	[[	4f/	-me	.	4g/	-me	[[	4cc\	-me	[[
=15	=15	=15	=15	=15	=15	=15	=15	=15	=15	=15	=15
!	!	!	!	!	!	!	!	!LO:DY:a	!	!	!LO:DY:a
4FF/ 4F	4a\ 4ff	f	4f/	ou	.	4a/	ou	f	4ff\	ou	f
4AA/	4f\ 4cc	.	4f/	l`en-	.	4a/	l`en-	.	4cc\	l`en-	.
4BB-/	4f\ 4dd	.	4B-/	-fer	.	4f/	-fer	.	4dd\	-fer	.
4r	4f\ 4dd	.	4B-/	vent	.	4f/	vent	.	4dd\	vent	.
=16	=16	=16	=16	=16	=16	=16	=16	=16	=16	=16	=16
4C/	(8a/L 8cc	>	4c/	m`at-	.	(8a/L	m`at-	.	(8dd\L	m`at-	.
.	8g/ 8b-	.	.	.	.	8g/J)	.	.	8b-\J)	.	.
!	!	!	!	!	!	!	!	!	!LO:TX:a:i:t=rall.	!	!
4c\	8f/ 8a	.	4c/	-ti-	.	(8f/L	-ti-	.	(8a/L	-ti-	.
.	8e/J) 8g	.	.	.	.	8e/J)	.	.	8g/J)	.	.
(4C\ [4c	(((4b-\ 4cc 4ee	]	(4c/	-rer	.	(4e/	-rer	.	(4g/	-rer	.
4F\) 4c]	4a\))) 4cc 4ff	.	4f;/)	.	.	4f;/)	.	.	4f;/)	.	.
=17||	=17||	=17||	=17||	=17||	=17||	=17||	=17||	=17||	=17||	=17||	=17||
4FF/ 4F	4f\ 4ff	f	1r	.	.	1r	.	.	1r	.	.
8AA\L 8A	4f/ 4cc	.	.	.	.	.	.	.	.	.	.
8BB-\J 8B-	.	.	.	.	.	.	.	.	.	.	.
4C\ 4c	4e/ 4cc	.	.	.	.	.	.	.	.	.	.
4C\ 4c	4e/ 4cc	.	.	.	.	.	.	.	.	.	.
=18	=18	=18	=18	=18	=18	=18	=18	=18	=18	=18	=18
4BBn\ 4Bn	8d/L 8dd	.	1r	.	.	1r	.	.	1r	.	.
.	8c#X/ 8cc#X	.	.	.	.	.	.	.	.	.	.
4BB-X\ 4B-X	8d/ 8dd	.	.	.	.	.	.	.	.	.	.
.	[8e/J 8ee	.	.	.	.	.	.	.	.	.	.
4AA\ 4A	4e/] 4cc#	.	.	.	.	.	.	.	.	.	.
!	!LO:TX:a:t=P:problem:# above	!	!	!	!	!	!	!	!	!	!
4GG\ 4G	[4a/	.	.	.	.	.	.	.	.	.	.
!LO:LB:g=original	!LO:LB:g=original	!	!LO:LB:g=original	!	!	!LO:LB:g=original	!	!	!LO:LB:g=original	!	!
=19	=19	=19	=19	=19	=19	=19	=19	=19	=19	=19	=19
*	*^	*	*	*	*	*	*	*	*	*	*
4FF/ 4F	4dd/	2a\]	.	1r	.	.	1r	.	.	1r	.	.
4EE/ 4E	4ee/	.	.	.	.	.	.	.	.	.	.	.
2DD/ 2D	2ff/	4a\	.	.	.	.	.	.	.	.	.	.
.	.	4bn\	.	.	.	.	.	.	.	.	.	.
*	*v	*v	*	*	*	*	*	*	*	*	*	*
=20	=20	=20	=20	=20	=20	=20	=20	=20	=20	=20	=20
.	8qcc/ 8qee	f	.	.	.	.	.	.	.	.	.
4.CC/ 4.C	2cc\ 2ee	.	1r	.	.	1r	.	.	1r	.	.
8C\ 8c	.	.	.	.	.	.	.	.	.	.	.
4C\ 4c	2r	.	.	.	.	.	.	.	.	.	.
4r	.	.	.	.	.	.	.	.	.	.	.
=21	=21	=21	=21	=21	=21	=21	=21	=21	=21	=21	=21
!	!LO:TX:b:i:t=con animato.	!	!	!	!	!	!	!LO:DY:a	!LO:TX:a:t=2.e STROPHE.	!	!LO:DY:a
4r	4f/ 4a	f	1r	.	.	4f/	Aux	p	4a/	Aux	p
(4F\	4g/ 4b-	.	.	.	.	4g/	che-	.	4b-/	che-	.
4FF/)	4a/ 4cc	.	.	.	.	4a/	-mins	.	4cc\	-mins	.
4r	4a/ 4cc	.	.	.	.	4a/	de	.	4cc\	de	.
=22	=22	=22	=22	=22	=22	=22	=22	=22	=22	=22	=22
4r	8g/L 8b-	<	2r	.	.	(8g/L	la	.	(8b-/L	la	.
.	8f/J 8a	.	.	.	.	8f/J)	.	.	8a/J)	.	.
!	!	!	!	!	!	!	!	!LO:DY:a	!	!	!LO:DY:a
(4F\	8g/L 8b-	.	.	.	.	(8g/L	sa-	<	(8b-\L	sa-	<
.	8a/J 8cc	.	.	.	.	8a/J)	.	.	8cc\J)	.	.
!	!	!	!	!	!LO:DY:a	!	!	!	!	!	!
4FF/)	4b-\ 4dd	[	4f/	Aux	p	4b-/	-ges-	.	4dd\	-ges-	.
4r	4a\ 4cc	.	4f/	che-	.	4a/	-se	[[	4cc\	-se	[[
=23	=23	=23	=23	=23	=23	=23	=23	=23	=23	=23	=23
!	!	!	!	!	!	!	!	!LO:DY:a	!	!	!LO:DY:a
4r	4a\ 4ff	f	4d/	-mins	.	4a/	par	f	4ff\	par	f
4F\	4a\ 4cc	.	4A/	de	.	4f/	ton	.	4cc\	ton	.
4BB-/	4b-\ 4dd	.	4B-/	la	.	4f/	e-	.	4dd\	e-	.
4r	4b-\ 4dd	.	4B-/	sa-	.	4f/	-xem-	.	4dd\	-xem-	.
!LO:PB:g=original	!LO:PB:g=original	!	!LO:PB:g=original	!	!	!LO:PB:g=original	!	!	!LO:PB:g=original	!	!
=24	=24	=24	=24	=24	=24	=24	=24	=24	=24	=24	=24
4CC/	(8a/L 8cc	.	4c/	-ple	.	(8e/L	-ple	.	(8cc\L	-ple	.
.	8g/ 8b-	.	.	.	.	8g/J)	.	.	8b-\J)	.	.
4C/	8f/ 8a	.	8c/	gui-	.	(8f/L	gui-	.	(8a/L	gui-	.
.	8e/J) 8g	.	8c/	.	.	8e/J)	.	.	8g/J)	.	.
(4C^\ 4B-	4c^>/ 4e 4g	.	(4c/	-dé	.	(4e/	-dé	.	(4g/	-dé	.
.	.	.	8qqB-/	.	.	.	.	.	.	.	.
4F\) 4A	4f/	.	4A/)	.	.	4f/)	.	.	4f/)	.	.
=25||	=25||	=25||	=25||	=25||	=25||	=25||	=25||	=25||	=25||	=25||	=25||
!	!	!	!	!	!LO:DY:a	!	!	!LO:DY:a	!	!	!LO:DY:a
4r	(4e/ 4g	p	4c/	Je	mf	4e/	Je	mf	4g/	Je	mf
(4c\	4f/ 4a	.	4c/	fui-	.	4f/	fui-	.	4a/	fui-	.
4C\)	4g/ 4b-	.	4c/	-rai	.	4g/	-rai	.	4b-/	-rai	.
4r	4f/) 4a	.	(8f/L	du	.	4f/	du	.	4a/	du	.
.	.	.	8e/J)	.	.	.	.	.	.	.	.
=26	=26	=26	=26	=26	=26	=26	=26	=26	=26	=26	=26
4r	(8g/L 8b-	.	4.d/	mal	.	4f/	mal	.	(8b-/L	mal	.
.	8f/ 8a	.	.	.	.	.	.	.	8a/J)	.	.
(4F\	8g/ 8b-	.	.	.	.	4f/	l`i-	.	(8b-\L	l`i-	.
!	!	!	!	!	!	!	!	!	!	!	!LO:DY:a
.	8a/J) 8cc	.	8c/	l`i-	.	.	.	.	8cc\J)	.	<
4FF/)	4b-\ 4dd	.	4B-/	-vres-	.	4f/	-vres-	.	4dd\	-vres-	.
4r	4a\ 4cc	.	4f/	-se	.	4a/	-se	[[	4cc\	-se	[[
=27	=27	=27	=27	=27	=27	=27	=27	=27	=27	=27	=27
!	!	!	!	!	!	!	!	!LO:DY:a	!	!	!LO:DY:a
4r	(4a\ 4ff	f	4f/	par	.	4a/	par	f	4ff\	par	f
(4F/	4a\ 4cc	.	4f/	toi	.	4a/	toi	.	4cc\	toi	.
!	!	!	!	!	!LO:DY:a	!	!	!	!	!	!
4BB-/)	4b-\) 4dd	.	4B-/	je	f	4f/	je	.	4dd\	je	.
4r	4b-\ 4dd	.	4B-/	se-	.	4f/	se-	.	4dd\	se-	.
=28	=28	=28	=28	=28	=28	=28	=28	=28	=28	=28	=28
4C/	(8a/L 8cc	.	4c/	-rai	.	(8a/L	-rai	.	(8cc\L	-rai	.
.	8g/ 8b-	.	.	.	.	8g/J)	.	.	8b-\J)	.	.
4c\	8f/ 8a	.	4c/	sau-	.	(8f/L	sau-	.	(8a/L	sau-	.
.	8e/J) 8g	.	.	.	.	8e/J)	.	.	8g/J)	.	.
!	!	!LO:DY:a	!	!	!	!	!	!	!	!	!LO:DY:a
((4C#X\ 4c#X	4e/ 4g	>	(4c#X/	-vé	.	(4e/	-vé	.	(4g/	-vé	p
4D\)) 4d	4f/	]]	4d/)	.	.	4d/)	.	.	4f/)	.	.
!LO:LB:g=original	!LO:LB:g=original	!	!LO:LB:g=original	!	!	!LO:LB:g=original	!	!	!LO:LB:g=original	!	!
=29	=29	=29	=29	=29	=29	=29	=29	=29	=29	=29	=29
4r	(4e/ 4g	p	4cn/	Je	.	4e/	Je	.	4g/	Je	.
4cn\	4f/ 4a	.	4c/	fui-	.	4f/	fui-	.	4a/	fui-	.
4C\	4g/ 4b-	.	4c/	-rai	.	4g/	-rai	.	4b-/	-rai	.
4r	4f/) 4a	.	4c/	du	.	4f/	du	.	4a/	du	.
=30	=30	=30	=30	=30	=30	=30	=30	=30	=30	=30	=30
4r	(8f/L 8b-	.	4.d/	mal	.	4f/	mal	.	(8b-/L	mal	.
.	8a/	.	.	.	.	.	.	.	8a/J)	.	.
(4F\	8f/ 8b-	<	.	.	.	(8f/L	l`i-	.	(8b-\L	l`i-	.
.	8a/J) 8cc	.	8c/	l`i-	.	8a/J)	.	.	8cc\J)	.	.
!	!	!	!	!	!LO:DY:a	!	!	!LO:DY:a	!	!	!LO:DY:a
4FF/)	4b-/ 4dd	.	4B-/	-vres-	<	4b-/	-vres-	<	4dd\	-vres-	<
4r	4a/ 4cc	[[	4f/	-se	[[	4a/	-se	[[	4cc\	-se	[[
=31	=31	=31	=31	=31	=31	=31	=31	=31	=31	=31	=31
!	!	!	!	!	!LO:DY:a	!	!	!LO:DY:a	!	!	!LO:DY:a
4FF/ 4F	4a\ 4ff	f	4f/	par	f	4a/	par	f	4ff\	par	f
4AA/	4f/ 4cc	.	4A/	toi	.	4f/	toi	.	4cc\	toi	.
4BB-/	4f/ 4dd	.	4B-/	par	.	4f/	je	.	4dd\	je	.
4r	4f/ 4dd	.	4B-/	toi	.	4f/	se-	.	4dd\	se-	.
=32	=32	=32	=32	=32	=32	=32	=32	=32	=32	=32	=32
4C/	(8a/L 8cc	>	4c/	je	.	4e/	-rai	.	8cc\L	-rai	.
.	8g/ 8b-	.	.	.	.	.	.	.	8b-\J	.	.
!	!	!	!LO:TX:a:i:t=rall.	!	!	!LO:TX:a:i:t=rall.	!	!	!LO:TX:a:i:t=rall.	!	!
4c\	8f/ 8a	.	4c/	se-	.	(8f/L	sau-	.	8a/L	sau-	.
.	8e/J) 8g	.	.	.	.	8e/J)	.	.	8g/J	.	.
(<4C\ [4c	((4b-\ [4cc 4ee	] >	8c/	-rai	.	(4e/	-vé	.	(4g/	-vé	.
.	.	.	8B-/	se-	.	.	.	.	.	.	.
4F\) 4c]	4a\)) 4cc] 4ff	]]	4A;/	-vé	.	4f;/)	.	.	4f;/)	.	.
!LO:LB:g=original	!LO:LB:g=original	!	!	!LO:LB:g=original	!	!	!LO:LB:g=original	!	!	!LO:LB:g=original	!
=33||	=33||	=33||	=33||	=33||	=33||	=33||	=33||	=33||	=33||	=33||	=33||
!	!LO:TX:b:B:t=a tempo.	!	!	!	!	!	!	!	!	!	!
2C\ 2c	4e/ 4cc	f	1ryy	.	.	1ryy	.	.	1ryy	.	.
.	4f/ 4dd	.	.	.	.	.	.	.	.	.	.
2BB-\ 2B-	4g/ 4ee	.	.	.	.	.	.	.	.	.	.
.	4e/ 4cc	.	.	.	.	.	.	.	.	.	.
=34	=34	=34	=34	=34	=34	=34	=34	=34	=34	=34	=34
4AA\ 4A	8f\L 8ff	.	1ryy	.	.	1ryy	.	.	1ryy	.	.
.	8cc\	.	.	.	.	.	.	.	.	.	.
.	8qee/	.	.	.	.	.	.	.	.	.	.
8BB-\L 8B-	8f\ 8dd	.	.	.	.	.	.	.	.	.	.
8AA\J 8A	8cc\J	.	.	.	.	.	.	.	.	.	.
4GG/ 4G	4e/ 4b-	.	.	.	.	.	.	.	.	.	.
4FF/ 4F	4f/ 4a	.	.	.	.	.	.	.	.	.	.
=35	=35	=35	=35	=35	=35	=35	=35	=35	=35	=35	=35
2DD/ 2D	4f/ 4a	<	1ryy	.	.	1ryy	.	.	1ryy	.	.
.	4f/ 4dd	.	.	.	.	.	.	.	.	.	.
2AAA/ 2AA	4.e/ 4.cc	[ >	.	.	.	.	.	.	.	.	.
.	8a/	]]	.	.	.	.	.	.	.	.	.
=36	=36	=36	=36	=36	=36	=36	=36	=36	=36	=36	=36
2BBB-/ 2BB-	4f/	<	1ryy	.	.	1ryy	.	.	1ryy	.	.
.	4d/ 4b-	.	.	.	.	.	.	.	.	.	.
2FF/ 2F	4.c/ 4.a	[ >	.	.	.	.	.	.	.	.	.
.	8A/ 8f	]]	.	.	.	.	.	.	.	.	.
=37	=37	=37	=37	=37	=37	=37	=37	=37	=37	=37	=37
2FF/ 2F	2A/ 2f	p	1ryy	.	.	1ryy	.	.	1ryy	.	.
2r	2r	.	.	.	.	.	.	.	.	.	.
!LO:LB:g=original	!LO:LB:g=original	!	!LO:LB:g=original	!	!	!LO:LB:g=original	!	!	!LO:LB:g=original	!	!
==38	==38	==38	==38	==38	==38	==38	==38	==38	==38	==38	==38
!	!	!	!	!	!	!	!	!LO:DY:a	!LO:TX:a:t=3.e STROPHE.	!	!LO:DY:a
4r	4f/ 4a	f	1r	.	.	4f/	Que	f	4a/	Que	f
(4F\	4g/ 4b-	.	.	.	.	4g/	ton	.	4b-/	ton	.
4FF/)	4a/ 4cc	.	.	.	.	4a/	ex-	.	4cc\	ex-	.
4r	4a/ 4cc	.	.	.	.	4a/	-em-	.	4cc\	-em-	.
=39	=39	=39	=39	=39	=39	=39	=39	=39	=39	=39	=39
4r	(8g/L 8b-	<	4r	.	.	(8g/L	-ple	.	(8b-/L	-ple	.
.	8f/J 8a	.	.	.	.	8f/J)	.	.	8a/J)	.	.
(4F\	8g/L 8b-	.	8r	.	.	(8g/L	m`ap-	.	(8b-\L	m`ap-	.
!	!	!	!	!	!LO:DY:a	!	!	!	!	!	!
.	8a/J) 8cc	.	8f/	m`ap-	<	8a/J)	.	.	8cc\J)	.	.
4FF/)	4b-\ 4dd	[	4f/	-pel-	.	4b-/	-pel-	.	4dd\	-pel-	.
4r	4a\ 4cc	.	4f/	-le	[[	4a/	-le	.	4cc\	-le	.
=40	=40	=40	=40	=40	=40	=40	=40	=40	=40	=40	=40
!	!	!	!	!	!LO:DY:a	!	!	!	!	!	!
4r	4a\ 4ff	f	4f/	vers	f	4a^/	vers	.	4ff^\	vers	.
(4F\	4a\ 4cc	.	4f/	le	.	4a/	le	.	4cc\	le	.
4BB-\)	4b-\ 4dd	.	4B-/	sa-	.	4f/	sa-	.	4dd\	sa-	.
4r	4b-\ 4dd	.	4B-/	-lut	.	4f/	-lut	.	4dd\	-lut	.
=41	=41	=41	=41	=41	=41	=41	=41	=41	=41	=41	=41
!	!	!	!	!	!LO:DY:a	!	!	!LO:DY:a	!	!	!LO:DY:a
4CC/	(8a/L 8cc	.	4c/	e-	>	4e/	e-	>	(8dd\L	e-	>
.	8g/ 8b-	.	.	.	.	.	.	.	8b-\J)	.	.
4C/	8f/ 8a	.	4c/	-ter-	.	(8f/L	-ter-	.	(8a/L	-ter-	.
.	8e/J) 8g	.	.	.	.	8e/J)	.	.	8g/J)	.	.
(4C^\ 4B-	4c^/ 4e 4g	.	(4B-/	-nel	]	(4e/	-nel	]	(4g/	-nel	]
4F\) 4A	4f/	.	4A/)	.	.	4f/)	.	.	4f/)	.	.
!LO:LB:g=original	!LO:LB:g=original	!	!LO:LB:g=original	!	!	!LO:LB:g=original	!	!	!LO:LB:g=original	!	!
==42	==42	==42	==42	==42	==42	==42	==42	==42	==42	==42	==42
!	!	!	!	!	!	!	!	!LO:DY:a	!	!	!LO:DY:a
4r	(4e/ 4g	p	2r	.	.	4e/	sois	p	4g/	sois	p
(4c\	4f/ 4a	.	.	.	.	4f/	mon	.	4a/	mon	.
!	!	!	!	!	!LO:DY:a	!	!	!	!	!	!
4C\)	4g/ 4b-	.	4c/	Sois	p	4g/	gui-	.	4b-/	gui-	.
4r	4f/) 4a	.	8f/	mon	.	4f/	-de	.	4a/	-de	.
.	.	.	8e/	mo-	.	.	.	.	.	.	.
=43	=43	=43	=43	=43	=43	=43	=43	=43	=43	=43	=43
4r	(8g\L 8b-	.	(4.d/	-dè-	.	4f/	mon	.	(8b-/L	mon	.
.	8f\ 8a	.	.	.	.	.	.	.	8a/J)	.	.
(4F\	8g\ 8b-	.	.	.	.	(8f/L	mo-	.	(8b-\L	mo-	.
.	8a\J) 8cc	.	8f/	.	.	8a/J)	.	.	8cc\J)	.	.
4FF/)	4b-\ 4dd	.	4f/)	-le	.	4b-/	-dè-	.	4dd\	-dè-	.
4r	4a\ 4cc	.	4r	.	.	4a/	-le	.	4cc\	-le	.
=44	=44	=44	=44	=44	=44	=44	=44	=44	=44	=44	=44
!	!	!	!	!	!LO:DY:a	!	!	!	!	!	!LO:DY:a
4r	(4a\ 4ff	f	4d/	mon-	f	4a/	mon-	.	4ff\	mon-	f
(4F\	4a\ 4cc	.	4A/	-tre	.	4f/	-tre	.	4cc\	-tre	.
4BB-\)	4b-\) 4dd	.	4B-/	moi	.	4f/	moi	.	4dd\	moi	.
4r	4b-\ 4dd	.	4B-/	tou-	.	4f/	tou-	.	4dd\	tou-	.
=45	=45	=45	=45	=45	=45	=45	=45	=45	=45	=45	=45
!	!	!	!	!	!	!	!	!LO:DY:a	!	!	!
4C/	(8a/L 8cc	.	4c/	-jours	.	(8a/L	-jours	>	(8cc/L	-jours	.
.	8g/ 8b-	.	.	.	.	8g/J)	.	.	8b-/J)	.	.
4c\	8f/ 8a	.	4c/	le	.	(8f/L	le	.	(8a/L	le	.
.	8e/J) 8g	.	.	.	.	8e/J)	.	.	8g/J)	.	.
((4C#X\ 4c#X	(4e/ 4g	.	(4c#X/	Ciel	.	(4e/	Ciel	]	(4g/	Ciel	.
4D\)) 4d	4f/)	.	4d/)	.	.	4f/)	.	.	4f/)	.	.
!LO:LB:g=original	!LO:LB:g=original	!	!LO:LB:g=original	!	!	!LO:LB:g=original	!	!	!LO:LB:g=original	!	!
=46	=46	=46	=46	=46	=46	=46	=46	=46	=46	=46	=46
4r	(4e/ 4g	p	4cn/	sois	.	4e/	sois	.	4g/	sois	.
!	!	!	!	!	!LO:DY:a	!	!	!LO:DY:a	!	!	!LO:DY:a
(4cn\	4f/ 4a	.	4c/	mon	<	4f/	mon	<	4a/	mon	<
4C/)	4g/ 4b-	.	4c/	gui-	.	4g/	gui-	.	4b-/	gui-	.
4r	4f/) 4a	.	4c/	-de	.	4f/	-de	.	4a/	-de	.
=47	=47	=47	=47	=47	=47	=47	=47	=47	=47	=47	=47
4r	(8f/L 8b-	.	4d/	mon	.	4f/	mon	.	(8b-/L	mon	.
.	8a/	.	.	.	.	.	.	.	8a/J)	.	.
(4F\	8f/ 8b-	<	(8d/L	mo-	.	(8f/L	mo-	.	(8b-\L	mo-	.
.	8a/J) 8cc	.	8f/J)	.	.	8a/J)	.	.	8cc\J)	.	.
4FF/)	4b-/ 4dd	.	4f/	-dè-	.	4b-/	-dè-	.	4dd\	-dè-	.
4r	4a/ 4cc	[[	4f/	-le	.	4a/	-le	.	4cc\	-le	.
=48	=48	=48	=48	=48	=48	=48	=48	=48	=48	=48	=48
!	!	!	!	!	!LO:DY:a	!	!	!LO:DY:a	!	!	!
!	!	!	!	!	!LO:DY:a	!	!	!LO:DY:a	!	!	!LO:DY:a
4DD/ 4D	4a\ 4ff	f	4d/	mon-	f <	4a/	mon-	f <	4ff\	mon-	f
4AA\ 4A	4f\ 4cc	.	4A/	-tre	.	4f/	-tre	.	4cc\	-tre	.
4BB-\ 4B-	4f\ 4dd	.	4B-/	moi	.	4f/	moi	.	4dd\	moi	.
4r	4f\ 4dd	.	4B-/	tou-	[[	4f/	tou-	[[	4dd\	tou-	.
=49	=49	=49	=49	=49	=49	=49	=49	=49	=49	=49	=49
!	!LO:TX:b:i:t=rall.	!	!	!	!	!	!	!	!	!	!
4C\ 4c	4a\ 4cc	.	[4c/	-jours	.	[4e/	-jours	.	(8cc\L	-jours	.
.	.	.	.	.	.	.	.	.	8b-\	.	.
8C\L 8c	8a\L 8cc	.	8c/]	.	.	8e/]	.	.	8a\J)	.	.
!	!	!	!LO:TX:a:i:t=rall.	!	!	!LO:TX:a:i:t=rall.	!	!	!LO:TX:a:i:t=rall.	!	!
8C\J 8c	8b-\J 8ee	.	8c/	le	.	8e/	le	.	8g/	le	.
2FF;</ 2F	2a;\ 2ff	f	2A;/	Ciel	.	2f;/	Ciel	.	2f;/	Ciel	.
==	==	==	==	==	==	==	==	==	==	==	==
*-	*-	*-	*-	*-	*-	*-	*-	*-	*-	*-	*-
!!!RDF**kern: > = above
!!!RDF**kern: < = below
!!!system-decoration: [(s1,s2,s3)][(s4,s5)]
!!!ENC: Filip Voros
!!!END: 2022-08-12
!!!ENC: Julita Ruszuk
!!!END: 2022-09-14
!!!YEC: Copyright 2022 Narodowy Instytut Fryderyka Chopina (https://polishscores.org)
!!!YEM: License CC-BY-4.0 (https://creativecommons.org/licenses/by/4.0)
